X:1
T:When I Walk Up The Streets of Gold
T:When I Walk Up The Streets of Gold
T:Homer F. Morris, 1920
T:Anonymous
T:Public Domain Courtesy of the Cyber Hymnal™
C:Homer F. Morris, 1920
Z:Public Domain
Z:Courtesy of the Cyber Hymnal™
%%score ( 1 2 ) ( 3 4 )
L:1/8
Q:1/4=115
M:4/4
K:Ab
V:1 treble 
V:2 treble 
V:3 bass 
V:4 bass 
V:1
 (EA) | [Ec]2 [Ec]>[Ec] [Fd]2 [Ec]>[Ec] | [DB]4 [DF]2 [DA]2 | [DG]2 [Gd]>[^Fc] [Gd]2 [DG]>[D=F] | %4
w: 1.The *|burd- ens of life may be|man- y, The|frowns of the world may be|
w: 2.~With *|joy I shall en- ter that|ci- ty, The|face of my Sav- ior be-|
w: 3.~What *|won- der- ful vis- ions of|beau- ty, What|glor- ri- ous scenes shall un-|
w: 4.~For *|a- ges and a- ges I’ll|praise Him, And|ne- ver grow wear- y or|
 [CE]6 (EA) | [Ec]2 [Ec]>[Ec] [Fd]2 [Ec]>[Ec] | [FB]4 [DF]2 [B,G]>[B,A] | %7
w: cold; To *|me it will mat- ter but|lit- tle, When I|
w: hold; And *|I shall be changed and be|like Him, When I|
w: fold; And *|what daz- zling splen- dors sur-|round me, When I|
w: old; Love *|crowned I’ll a- bide in His|pre- sence, When I|
 [CE]2 [CA]>[Fd] [Ec]2 [DB]2 | [CA]6 ||"^Refrain" [CA]>[Ec] | [Fd]2 F>[EG] [DF]2 [DA]2 | %11
w: walk up the streets of|gold.|||
w: walk up the streets of|gold.|||
w: walk up the streets of|gold.|||
w: walk up the streets of|gold.|||
 [Fd]6 [Ge]>[Fd] | [Ec]2 [CE]>[DF] [CE]2 [CA]2 | [Ec]6 [Ec]>[Ed] | %14
w: |||
w: |||
w: |||
w: |||
 [Ae]2 [Ec]>[Ec] [Fd]2 [Ec]>[Ec] | [FB]4 [DF]2 [B,G]>[B,A] | [CE]2 [CA]>[Fd] [Ec]2 [DB]2 | [CA]6 |] %18
w: ||||
w: ||||
w: ||||
w: ||||
V:2
 C2 | x8 | x8 | x8 | x6 C2 | x8 | x8 | x8 | x6 || x2 | x2 D3/2 x9/2 | x8 | x8 | x8 | x8 | x8 | x8 | %17
 x6 |] %18
V:3
 [A,,A,]2 | [A,,A,]2 [A,,A,]>[A,,A,] [A,,A,]2 [A,,A,]>[A,,A,] | [D,F,]4 [D,A,]2 [D,F,]2 | %3
w: ~|~ ~ ~ ~ ~ ~|~ ~ ~|
 E,2 [E,B,]>[E,=A,] [E,B,]2 [E,B,]>[E,G,] | [A,,A,]6 A,2 | A,2 A,>A, A,2 A,>A, | %6
w: ~ ~ ~ ~ ~ ~|~ ~|~ ~ ~ ~ ~ ~|
 [D,D]4 [D,A,]2 [=D,G,]>[D,F,] | [E,A,]2 [F,A,]>[D,A,] [E,A,]2 [E,G,]2 | [A,,A,]6 || %9
w: ~ ~ ~ ~|~ ~ ~ ~ ~|~|
 [A,,A,]>[A,,A,] | [D,A,]2 [D,A,]>[D,A,] [D,A,]2 [D,F,]2 | [D,A,]6 [D,A,]>[D,A,] | %12
w: When I|walk up the streets of|gold, When I|
 [A,,A,]2 [A,,A,]>[A,,A,] [A,,A,]2 [A,,E,]2 | [A,,A,]6 A,>[A,B,] | [A,C]2 A,>A, A,2 A,>A, | %15
w: walk up the streets of|gold, How my|heart will re- joice in that|
 [D,D]4 [D,A,]2 [=D,G,]>[D,F,] | [E,A,]2 [F,A,]>[D,A,] [E,A,]2 [E,G,]2 | [A,,A,]6 |] %18
w: mor- ning, When I|walk up the streets of|gold.|
V:4
 x2 | x8 | x8 | E,2 x6 | x8 | x8 | x8 | x8 | x6 || x2 | x8 | x8 | x8 | x8 | x8 | x8 | x8 | x6 |] %18

